!!!!SEGMENT: Ror0107-Strane_rupi_aspri_monti
!!!id: Ror0107
!!!AGN:
!!!voices: 5
!!!COM: Cipriano de Rore
!!!OTL: Strane rupi aspri monti
**kern	**text	**kern	**text	**kern	**text	**kern	**text	**kern	**text
*part5	*part5	*part4	*part4	*part3	*part3	*part2	*part2	*part1	*part1
*staff5	*staff5	*staff4	*staff4	*staff3	*staff3	*staff2	*staff2	*staff1	*staff1
*I"Bassus	*	*I"Tenor II	*	*I"Tenor I	*	*I"Altus	*	*I"Superius	*
*I'B	*	*I'T. II	*	*I'T. I	*	*I'A	*	*I'S	*
*clefF4	*	*clefGv2	*	*clefGv2	*	*clefGv2	*	*clefG2	*
*k[]	*	*k[]	*	*k[]	*	*k[]	*	*k[]	*
*M2/1	*	*M2/1	*	*M2/1	*	*M2/1	*	*M2/1	*
*met(C)	*	*met(C)	*	*met(C)	*	*met(C)	*	*met(C)	*
=1	=1	=1	=1	=1	=1	=1	=1	=1	=1
!!section: Strane rupi
!!!OMD: Strane rupi
1A	Stra-	0r	.	1c	Stra-	2r	.	0r	.
.	.	.	.	.	.	1e	Stra-	.	.
1G	-ne	.	.	1B	-ne	.	.	.	.
.	.	.	.	.	.	[2d	-ne	.	.
=2	=2	=2	=2	=2	=2	=2	=2	=2	=2
1F	ru-	1r	.	2A	ru-	2d]	.	2r	.
.	.	.	.	2A	-pi,	1c	ru-	1a	.
1E	-pi,	1e	Stra-	1r	.	.	.	.	.
.	.	.	.	.	.	2B	-pi,	2g	-ne
=3	=3	=3	=3	=3	=3	=3	=3	=3	=3
1r	.	1d	-ne	4r	.	2r	.	1f	ru-
.	.	.	.	2D	a-	.	.	.	.
.	.	.	.	.	.	2.A	a-	.	.
.	.	.	.	4D	-spri	.	.	.	.
2.AA	a-	1c	ru-	2A	mon-	.	.	2e	-pi,
.	.	.	.	.	.	4A	-spri	.	.
.	.	.	.	2E	-ti,	2e	mon-	4r	.
4AA	-spri	.	.	.	.	.	.	[4a	a-
=4	=4	=4	=4	=4	=4	=4	=4	=4	=4
2E	mon-	2B	-pi,	2r	.	2e	-ti,	4a]	.
.	.	.	.	.	.	.	.	4g	-spri
2AA	-ti,	4r	.	2e	al-	4r	.	2cc	mon-
.	.	2A	a-	.	.	2e	a-	.	.
4r	.	.	.	4c#X	-te	.	.	2a	-ti,
2A	al-	4D	-spri	4d	tre-	4f	-spri	.	.
.	.	2G	mon-	2B	-man-	2d	mon-	2r	.
[4G	-te	.	.	.	.	.	.	.	.
=5	=5	=5	=5	=5	=5	=5	=5	=5	=5
4G]	.	2D	-ti,	4.A	-ti	2d	-ti,	4r	.
4F	tre-	.	.	.	.	.	.	2a	al-
.	.	.	.	8B	.	.	.	.	.
2E	-man-	1r	.	4c	.	4r	.	.	.
.	.	.	.	4B	Ru-	2e	al-	2g	-te
4C#X	-ti	.	.	2A	-i-	.	.	.	.
4D	Ru-	.	.	.	.	2d	-te	4f	tre-
4.AA	-i-	4r	.	2A	-ne,	.	.	2e	-man-
.	.	[4A	al-	.	.	4c	tre-	.	.
8BB	.	.	.	.	.	.	.	.	.
=6	=6	=6	=6	=6	=6	=6	=6	=6	=6
4.C	.	4A]	.	4r	.	2c	-man-	8eL	-ti
.	.	.	.	.	.	.	.	8f	.
.	.	2G	-te	2e	al-	.	.	8g	.
16BBLL	.	.	.	.	.	.	.	8aJ	.
16AAJJ	.	.	.	.	.	.	.	.	.
8GGL	.	.	.	.	.	2B	-ti	8bL	.
8AA	.	.	.	.	.	.	.	8ccJ	.
8BB	.	4G	tre-	2d	-te	.	.	2dd	.
8CJ	.	.	.	.	.	.	.	.	.
2D	.	2F	-man-	.	.	2A	Ru-	.	.
.	.	.	.	4d	tre-	.	.	2a	Ru-
2AA	-ne	4E	-ti	2c	-man-	2e	-i-	.	.
.	.	4E	Ru-	.	.	.	.	[4cc	-i-
=7	=7	=7	=7	=7	=7	=7	=7	=7	=7
1r	.	2F	-i-	2A	-ti	4.c	-ne	8ccL]	.
.	.	.	.	.	.	.	.	8bJ	.
.	.	.	.	.	.	.	.	2a	.
.	.	.	.	.	.	8d	.	.	.
.	.	1E	-ne	4B	Ru-	1e	.	.	.
.	.	.	.	4.c	-i-	.	.	4g	-ne
2AA	e	.	.	.	.	.	.	4r	.
.	.	.	.	8BL	.	.	.	.	.
.	.	.	.	8A	.	.	.	2c	e
.	.	.	.	8GJ	.	.	.	.	.
2F	sas-	4r	.	2A	.	2r	.	.	.
.	.	4D	e	.	.	.	.	[4f	sas-
=8	=8	=8	=8	=8	=8	=8	=8	=8	=8
4D	-si al	2F	sas-	2A	-ne	4r	.	4f]	.
2A	ciel	.	.	.	.	4A	e	4d	-si al
.	.	4E	-si al	4r	.	4c	sas-	2e	ciel
4G	nu-	2e	ciel	4E	e	4B	-si al	.	.
4A	-di e	.	.	2F	sas-	1A	ciel,	1r	.
4D	sco-	2d	nu-	.	.	.	.	.	.
2F	-per-	.	.	4D	-si al	.	.	.	.
.	.	[4c	-di e	[4A	ciel	.	.	.	.
=9	=9	=9	=9	=9	=9	=9	=9	=9	=9
2E	-ti,	4c]	.	4A]	.	4r	.	2r	.
.	.	4B	sco-	2G	nu-	2e	e	.	.
4C	e	8cL	-per-	.	.	.	.	4r	.
.	.	8B	.	.	.	.	.	.	.
2D	sas-	8A	.	2F	-di e	4f	sas-	2A	e
.	.	8GJ	.	.	.	.	.	.	.
.	.	8FL	.	.	.	4d	-si al	.	.
.	.	8DJ	.	.	.	.	.	.	.
4AA	-si al	4A	.	4E	sco-	2e	ciel	4c	sas-
2D	ciel	2A	-ti,	2F	-per-	.	.	4A	-si al
.	.	.	.	.	.	4d	nu-	[4a	ciel
=10	=10	=10	=10	=10	=10	=10	=10	=10	=10
8AAL	nu-	2r	.	4E	-ti,	2c	-di e	4a]	.
8BB	.	.	.	.	.	.	.	.	.
8C	.	.	.	4e	O-	.	.	2g	nu-
8DJ	.	.	.	.	.	.	.	.	.
4E	.	4r	.	4e	-ve a	4B	sco-	.	.
2F	-di e	4D	nu-	4d	gran	4.A	-per-	2f	-di e
.	.	4.A	-di e	2c	pe-	.	.	.	.
.	.	.	.	.	.	8B	.	.	.
4C	sco-	.	.	.	.	2c	.	4e	sco-
.	.	8G	.	.	.	.	.	.	.
2D	-per-	4F	.	4A	-na	.	.	2f	-per-
.	.	4D	sco-	4d	pon	4B	.	.	.
=11	=11	=11	=11	=11	=11	=11	=11	=11	=11
4C	-ti,	4E	-per-	4G	sa-	1c	.	1e	-ti,
4AA	O-	4E	-ti,	2A	-lir	.	.	.	.
4AA	-ve a	4r	.	.	.	.	.	.	.
4AA	gran	4e	O-	4A	tant’	.	.	.	.
4.D	pe-	4d	-ve a	4.F	er-	2A	-ti,	4r	.
.	.	4d	gran	.	.	.	.	4a	O-
8E	.	.	.	16ELL	.	.	.	.	.
.	.	.	.	16DJJ	.	.	.	.	.
4F	.	2c	pe-	4A	.	2r	.	4a	-ve a
4C	-na	.	.	4E	-ti	.	.	4g	gran
=12	=12	=12	=12	=12	=12	=12	=12	=12	=12
4D	pon	4A	-na	8FL	Nu-	2r	.	2f	pe-
.	.	.	.	8G	.	.	.	.	.
4D	sa-	4d	pon	8A	.	.	.	.	.
.	.	.	.	8BJ	.	.	.	.	.
4C	-lir	4G	sa-	2.c	.	4r	.	4e	-na
8AAL	tant’	4c	-lir	.	.	2e	O-	4a	pon
8BBJ	.	.	.	.	.	.	.	.	.
8CL	.	4r	.	.	.	.	.	4g	sa-
8D	.	.	.	.	.	.	.	.	.
8E	.	8CL	tant’	4G	-vo-	2e	-ve a	2cc	-lir
8FJ	.	8DJ	.	.	.	.	.	.	.
4G	.	8EL	.	2G	-li	.	.	.	.
.	.	8FJ	.	.	.	.	.	.	.
4GG	er-	4G	.	.	.	[4d	gran	4b	tant’
=13	=13	=13	=13	=13	=13	=13	=13	=13	=13
4D	-ti	4F	er-	2r	.	4d]	.	2a	er-
8AAL	Nu-	4.E	-ti	.	.	2c	pe-	.	.
8BBJ	.	.	.	.	.	.	.	.	.
8CL	.	.	.	2E	in	.	.	4g	-ti
8DJ	.	8FL	.	.	.	.	.	.	.
4E	.	8G	.	.	.	4B	-na	4.g	Nu-
.	.	8AJ	.	.	.	.	.	.	.
4E	-vo-	4B	.	2E	que-	2e	pon	.	.
.	.	.	.	.	.	.	.	8f	.
4AA	-li,	4.c	Nu-	.	.	.	.	2e	.
4r	.	.	.	2F	-sto	4A	sa-	.	.
.	.	8BL	.	.	.	.	.	.	.
4D	O-	8A	.	.	.	[4f	-lir	4d	-vo-
.	.	8GJ	.	.	.	.	.	.	.
=14	=14	=14	=14	=14	=14	=14	=14	=14	=14
4D	-ve a	8FL	.	4D	fo-	4f]	.	2a	-li
.	.	8DJ	.	.	.	.	.	.	.
4C	gran	4A	.	4E	-sco a-	4e	tant’	.	.
2BB-X	pe-	2D	-vo-	4F	-er	2d	er-	2r	.
.	.	.	.	4G	fu-	.	.	.	.
2.AA	-na	2E	-li	1A	-man-	2.c	-ti	4r	.
.	.	.	.	.	.	.	.	4e	in
.	.	4r	.	.	.	.	.	4e	que-
4D	pon	4D	in	.	.	8BL	.	4f#X	-sto
.	.	.	.	.	.	8AJ	.	.	.
=15	=15	=15	=15	=15	=15	=15	=15	=15	=15
4GG	sa-	4D	que-	1G	-ti,	4B	.	4g	fo-
2C	-lir	4E	-sto	.	.	2e	Nu-	4.g	-sco a-
.	.	4C	fo-	.	.	.	.	.	.
.	.	.	.	.	.	.	.	8a	.
4GG	tant’	4G	-sco a-	.	.	4d	-vo-	4b	.
2AA	er-	4E	-er	2r	.	2c	-li	4cc	-er
.	.	4F#X	fu-	.	.	.	.	4a	fu-
2GG	-ti	[2G	-man-	4r	.	4r	.	2b	-man-
.	.	.	.	4D	in	4B	in	.	.
=16	=16	=16	=16	=16	=16	=16	=16	=16	=16
4.G	Nu-	4G]	.	8EL	que-	2B	que-	2b	-ti,
.	.	.	.	8F	.	.	.	.	.
.	.	4E	-ti,	8G	.	.	.	.	.
8F	.	.	.	8AJ	.	.	.	.	.
4E	.	4r	.	4B	.	4G	-sto	4r	.
4AA	-vo-	4E	in	2A	-sto	2c	fo-	4e	in
2AA	-li	2A	que-	.	.	.	.	2e	que-
.	.	.	.	4c#X	fo-	2A	-sco a-	.	.
4r	.	4D	-sto	4d	-sco a-	.	.	4f	-sto
4GG	in	4G	fos-	4d	-er	4B	-er	4d	fos-
=17	=17	=17	=17	=17	=17	=17	=17	=17	=17
4C	que-	4E	-co a-	4G	fu-	4c	fu-	4e	-co a-
4BB-X	-sto	4D	-er	2B-X	-man-	4.d	-man-	4f	-er
4GG	fos-	4G	fu-	.	.	.	.	4g	fu-
.	.	.	.	.	.	8eL	.	.	.
2D	-co a-	4.F	-man-	4A	-ti,	8f	.	4.a	-man-
.	.	.	.	.	.	8dJ	.	.	.
.	.	.	.	4r	.	2f	.	.	.
.	.	8EL	.	.	.	.	.	8gL	.
4D	-er	8F	.	4d	a-	.	.	8a	.
.	.	8GJ	.	.	.	.	.	8bJ	.
2AA	fu-	2A	.	4c	-er	2e	-ti,	8ccL	.
.	.	.	.	.	.	.	.	8aJ	.
.	.	.	.	4A	fu-	.	.	[4cc	.
=18	=18	=18	=18	=18	=18	=18	=18	=18	=18
2E	-man-	2G	-ti,	4.B	-man-	2r	.	8ccL]	.
.	.	.	.	.	.	.	.	8bJ	.
.	.	.	.	.	.	.	.	2b	.
.	.	.	.	16ALL	.	.	.	.	.
.	.	.	.	16BJJ	.	.	.	.	.
2AA	-ti,	4r	.	2c	.	2e	in	.	.
.	.	2E	in	.	.	.	.	4a	.
4r	.	.	.	4B	-ti,	2.g	que-	2b	-ti,
4E	in	2G	que-	2B	in	.	.	.	.
2E	que-	.	.	.	.	.	.	2r	.
.	.	4G	-sto	[4c	que-	4g	-sto	.	.
=19	=19	=19	=19	=19	=19	=19	=19	=19	=19
2.F	-sto	4.A	fo-	4c]	.	2f	fo-	1r	.
.	.	.	.	4c	-sto	.	.	.	.
.	.	8B	.	.	.	.	.	.	.
.	.	4c	.	2A	fo-	2.f	-sco_a-	.	.
2D	fos-	2d	-sco a-	.	.	.	.	.	.
.	.	.	.	2B	-sco a-	.	.	1r	.
2E	-co a-	4G	-er	.	.	4e	-er	.	.
.	.	4G	fu-	2c	-er	4g	fu-	.	.
[4F	-er	[4A	-man-	.	.	[4f	-man-	.	.
=20	=20	=20	=20	=20	=20	=20	=20	=20	=20
4F]	.	8AL]	.	4d	fu-	8fL]	.	2r	.
.	.	8GJ	.	.	.	8eJ	.	.	.
4G	fu-	4E	.	2c	-man-	2e	.	.	.
2A	-man-	2F	.	.	.	.	.	1a	Su-
.	.	.	.	8BL	.	4d	.	.	.
.	.	.	.	8AJ	.	.	.	.	.
4AA	-ti,	2E	-ti,	4.c	.	4e	-ti,	.	.
2AA	Su-	.	.	.	.	4c	Su-	.	.
.	.	.	.	8d	.	.	.	.	.
.	.	4r	.	[2e	.	4c	-per-	[2cc	-per-
[4C	-per-	[4E	Su-	.	.	4G	-bo hor-	.	.
=21	=21	=21	=21	=21	=21	=21	=21	=21	=21
4C]	.	4E]	.	2e]	.	2G	-ror,	4cc]	.
4C	-bo hor-	2G	-per-	.	.	.	.	4cc	-bo hor-
2GG	-ror,	.	.	1d	-ti,	2r	.	4b-X	-ror,
.	.	4G	-bo hor-	.	.	.	.	2b-i	ta-
2D	ta-	4F	-ror,	.	.	4r	.	.	.
.	.	4F	ta-	.	.	4A	ta-	4.a	-ci-
4C	-ci-	4E	-ci-	2r	.	4c	-ci-	.	.
.	.	.	.	.	.	.	.	8g	-te
4GG	-te	4G	-te	.	.	4d	-te	[4b-i	sel-
=22	=22	=22	=22	=22	=22	=22	=22	=22	=22
2D	sel-	2F	sel-	2A	Su-	4.d	sel-	8b-L]	.
.	.	.	.	.	.	.	.	8aJ	.
.	.	.	.	.	.	.	.	2a	.
.	.	.	.	.	.	8c	.	.	.
2GG	-ve,	4.D	-ve,	2.d	-per-	2B-X	.	.	.
.	.	.	.	.	.	.	.	4g	.
.	.	8E	.	.	.	.	.	.	.
2D	Su-	8FL	.	.	.	4A	-ve,	1a	-ve,
.	.	8E	.	.	.	.	.	.	.
.	.	8F	.	4d	-bo hor-	4A	Su-	.	.
.	.	8GJ	.	.	.	.	.	.	.
2F	-per-	4A	.	4c	-ror,	8AL	-per-	.	.
.	.	.	.	.	.	8BnXi	.	.	.
.	.	[4A	ta-	[4c	ta-	8c	.	.	.
.	.	.	.	.	.	8dJ	.	.	.
=23	=23	=23	=23	=23	=23	=23	=23	=23	=23
2E	-bo hor-	4A]	.	4c]	.	4e	.	4r	.
.	.	4G	-ci	4B	-ci-	4e	-bo hor-	4e	Su-
4D	-ror,	8FL	te	4d	-te	2A	-ror,	4a	-per-
.	.	8G	.	.	.	.	.	.	.
4F	ta-	8A	.	4.c	sel-	.	.	4a	-bo hor-
.	.	8BJ	.	.	.	.	.	.	.
4E	-ci-	4c	.	.	.	1r	.	2g	-ror,
.	.	.	.	8B	.	.	.	.	.
4G	-te	2e	sel-	2B	.	.	.	.	.
2F	sel-	.	.	.	.	.	.	4r	.
.	.	4d	-ve	4A	.	.	.	[4a	ta-
=24	=24	=24	=24	=24	=24	=24	=24	=24	=24
4.E	-ve	4r	.	4B	-ve	2r	.	4a]	.
.	.	4B	e	4r	.	.	.	4g	-ci-
8D	.	.	.	.	.	.	.	.	.
8CL	.	4e	tan-	4E	e	2c	ta-	4g	-te
8BBJ	.	.	.	.	.	.	.	.	.
4AA	.	4e	-ti	4A	tan-	.	.	2cc	sel-
4r	.	4d	Negr’-	4F#X	-ti	4A	-ci-	.	.
4E	e	2e	-antr’	4G#X	Negr’	4B	-te	4.b	.
4A	tan-	.	.	2A	antr’	2c	sel-	.	.
.	.	.	.	.	.	.	.	8a	.
[4A	-ti	4e	her-	.	.	.	.	4a	.
=25	=25	=25	=25	=25	=25	=25	=25	=25	=25
4A]	.	4e	-bo-	4E	her-	2B	-ve	2b	-ve
4G	Negr’	4E	-si in	4e	-bo-	.	.	.	.
4A	antr’	4F	rot-	4c	-si in	4r	.	2r	.
4F	her-	4D	-te	4.d	rot-	2A	e	.	.
4D	-bo-	4F#X	pie-	.	.	.	.	4r	.
.	.	.	.	8c	.	.	.	.	.
4E	-si in	4G	-tre a-	2B	.	4e	tan-	4e	e
4F	rot-	4A	-per-	.	.	4e	-ti	4a	tan-
4F	-te	4D	-ti,	4A	-te	4d	Negr’	4a	-ti
=26	=26	=26	=26	=26	=26	=26	=26	=26	=26
4E	pie-	4r	.	4B	pie-	4e	antr’	4g#X	Negr’
4AA	-tre a-	4A	in	4c#X	-tre a-	4e	her-	4a	antr’
2D	-per-	2F#X	rot-	2d	-per-	4A	-bo-	4a	her-
.	.	.	.	.	.	4A	-si in	4d	-bo-
4GG	-ti,	4G	-te	4d	-ti,	4B	rot-	4d	-si in
4C	in	2E	pie-	4G	in	4c	-te	4e	rot-
4AA	rot-	.	.	4A	rot-	4c	pie-	4e	-te
4D	-te	4D	-tre a-	4F	-te	4A	-tre a-	[4f	pie-
=27	=27	=27	=27	=27	=27	=27	=27	=27	=27
4.C	pie-	8EL	-per-	4G	pie-	1c	-per-	4f]	.
.	.	8FJ	.	.	.	.	.	.	.
.	.	4.G	.	4G	-tre a-	.	.	4e	-tre a-
8BB	-tre a-	.	.	.	.	.	.	.	.
2AA	-per-	.	.	2A	-per-	.	.	2a	-per-
.	.	8F#i	.	.	.	.	.	.	.
.	.	4F#i	.	.	.	.	.	.	.
1GG	-ti,	2G	-ti,	4D	-ti,	4B	-ti,	2b	-ti,
.	.	.	.	4d	Ab-	4B	Ab-	.	.
.	.	4r	.	4d	-ban-	4B	-ban-	4r	.
.	.	4G	Ab-	4d	-do-	4B	-do-	4b	Ab-
=28	=28	=28	=28	=28	=28	=28	=28	=28	=28
2r	.	4E	-ban-	2e	-na-	2g	-na-	4b	-ban-
.	.	4E	-do-	.	.	.	.	4b	-do-
2AA	Ab-	2A	-na-	2c	-ti,	4e	-ti,	1cc	-na-
.	.	.	.	.	.	4e	Ab-	.	.
4AA	-ban-	2A	-ti,	4r	.	4e	-ban-	.	.
4AA	-do-	.	.	4A	Ab-	4e	-do-	.	.
2D	-na-	4r	.	4A	-ban-	2f	-na-	2a	-ti
.	.	4D	Ab-	4A	-do-	.	.	.	.
=29	=29	=29	=29	=29	=29	=29	=29	=29	=29
2GG	-ti	4D	-ban-	2B-X	-na-	2d	-ti	4r	.
.	.	4D	-do-	.	.	.	.	2g	ste-
4r	.	4.E	-na-	2G	-ti	2r	.	.	.
2C	ste-	.	.	.	.	.	.	4e	-ri-
.	.	8F	.	.	.	.	.	.	.
.	.	4G	.	2r	.	2.c	ste-	1e	-li
4AA	-ri-	4A	-ti	.	.	.	.	.	.
2AA	-li	2r	.	4r	.	.	.	.	.
.	.	.	.	[4c	ste-	4A	-ri-	.	.
=30	=30	=30	=30	=30	=30	=30	=30	=30	=30
4r	.	2.F	ste-	4c]	.	4A	-li	1r	.
4D	de-	.	.	4A	-ri-	4f	de-	.	.
2D	-ser-	.	.	2A	-li	2f	-ser-	.	.
.	.	4D	-ri-	.	.	.	.	.	.
2C	-ti,	4G	-li	1r	.	4e	-ti,	4r	.
.	.	4G	de-	.	.	2e	ste-	4cc	de-
2r	.	2A	-ser-	.	.	.	.	2cc	-ser-
.	.	.	.	.	.	4f#X	-ri-	.	.
=31	=31	=31	=31	=31	=31	=31	=31	=31	=31
4r	.	2G	-ti	4r	.	4g	-li	4b	-ti
4C	de-	.	.	4c	de-	4g	de-	4e	O-
2C	-ser-	4r	.	2c	-ser-	2e	-ser-	2.g	-ve han
.	.	4G	O-	.	.	.	.	.	.
2GG	-ti	4G	-ve han	4B	-ti	2d	-ti	.	.
.	.	4D	pa-	4B	O-	.	.	4g	pa-
2r	.	4F#X	-u-	4d	-ve han	2r	.	4a	-u-
.	.	4G	-ra an-	4d	pa-	.	.	4b	-ra an-
=32	=32	=32	=32	=32	=32	=32	=32	=32	=32
2r	.	4A	-dar	4.c	-u-	4r	.	4cc	-dar
.	.	4F	le	.	.	4A	O-	2c	le
.	.	.	.	8B	.	.	.	.	.
4r	.	4F	bel-	4A	.	2c	-ve han	.	.
4C	O-	4E	-ve er-	2G	-ra an-	.	.	4.e	bel-
4C	-ve han	8GL	-ran-	.	.	4c	pa-	.	.
.	.	8A	.	.	.	.	.	8f	.
4GG	pa-	8B	.	2G	-dar	2d	-u-	2g	.
.	.	8cJ	.	.	.	.	.	.	.
4BB	-u-	4d	.	.	.	.	.	.	.
4C	-ra an-	[4c	.	4E	le	4e	-ra an-	4g	-ve er-
=33	=33	=33	=33	=33	=33	=33	=33	=33	=33
2D	-dar	4c]	.	4F	bel-	4A	-dar	2f	-ran-
.	.	4B	.	4D	-ve er-	4d	le	.	.
4C	le	4c	-ti,	2G	-ran-	4.e	bel-	4e	-ti,
4.E	bel-	4C	O-	.	.	.	.	4cc	O-
.	.	.	.	.	.	8f	.	.	.
.	.	8CL	-ve han	4E	-ti,	2.g	.	4cc	-ve han
8F	.	8D	.	.	.	.	.	.	.
4G	.	8E	.	2E	O-	.	.	4b	pa-
.	.	8FJ	.	.	.	.	.	.	.
4.C	-ve er-	4G	.	.	.	.	.	4cc	-u-
.	.	4E	pa-	4G	-ve han	[4g	-ve er-	4cc	-ra an-
8D	.	.	.	.	.	.	.	.	.
=34	=34	=34	=34	=34	=34	=34	=34	=34	=34
4E	.	4E	-u-	4G	pa-	4g]	.	4b	-dar
2D	-ran-	4F	-ra an-	4A	-u-	2f	-ran-	4dd	le
.	.	4D	-dar	4B	-ra an-	.	.	4dd	bel-
4C	-ti,	4E	le	2c	-dar	4e	-ti,	4g	-ve er-
4r	.	8FL	bel-	.	.	4r	.	1a	-ran-
.	.	8G	.	.	.	.	.	.	.
2F	O-	8A	.	4F	le	4c	O-	.	.
.	.	8BJ	.	.	.	.	.	.	.
.	.	[2c	.	4.A	bel-	4f	-ve han	.	.
4F	-ve han	.	.	.	.	4f	pa-	.	.
.	.	.	.	8B	.	.	.	.	.
=35	=35	=35	=35	=35	=35	=35	=35	=35	=35
4C	pa-	4c]	.	2.c	.	4e	-u-	2g	-ti,
4E	-u-	4G	-ve er-	.	.	4g	-ra an-	.	.
4F	-ra an-	4A	-ran-	.	.	4f	-dar	4r	.
2G	-dar	4E	-ti,	4c	-ve er-	4e	le	4g	O-
.	.	4r	.	2B-X	-ran-	2.d	bel-	4g	-ve han
4GG	le	4G	le	.	.	.	.	4g	pa-
4D	bel-	4F	bel-	4A	-ti,	.	.	4.a	-u-
4D	-ve er-	4F	-ve er-	4A	O-	4d	-ve er-	.	.
.	.	.	.	.	.	.	.	8b	-ra an-
=36	=36	=36	=36	=36	=36	=36	=36	=36	=36
2C	-ran-	2E	-ran-	4A	-ve han	1.e	-ran-	2.cc	-dar
.	.	.	.	4G	pa-	.	.	.	.
4AA	-ti,	2E	-ti,	2c	-u-	.	.	.	.
4AA	Ov’	.	.	.	.	.	.	4cc	le
4C	han	4r	.	2c	-ra an-	.	.	2g	bel-
4C	pa-	4E	O-	.	.	.	.	.	.
2GG	-u-	[2G	-ve han	4B	-dar	4d	-ti,	4g	-ve er-
.	.	.	.	4d	le	[4B	O-	[4g	-ran-
=37	=37	=37	=37	=37	=37	=37	=37	=37	=37
2GG	-ra an-	4G]	.	4d	bel-	4B]	.	8gL]	.
.	.	.	.	.	.	.	.	8aJ	.
.	.	4G	pa-	4D	-ve er-	2d	-ve han	4.b-X	.
2D	-dar	4.A	-u-	2F	-ran-	.	.	.	.
.	.	.	.	.	.	.	.	8a	.
.	.	.	.	.	.	4d	pa-	4.a	.
.	.	8B	-ra an-	.	.	.	.	.	.
2C	le	2c	-dar	4.E	-ti,	2e	-u-	.	.
.	.	.	.	.	.	.	.	8g	.
.	.	.	.	.	.	.	.	4.g	.
.	.	.	.	8F	.	.	.	.	.
4.E	bel-	[2C	le	4G	.	4e	-ra an-	.	.
.	.	.	.	.	.	.	.	8fL	.
.	.	.	.	[4G	le	[4g	-dar	8e	.
8F	.	.	.	.	.	.	.	8dJ	.
=38	=38	=38	=38	=38	=38	=38	=38	=38	=38
2G	.	2C]	.	4G]	.	4g]	.	4.e	.
.	.	.	.	4c	bel-	2G	le	.	.
.	.	.	.	.	.	.	.	8f	.
4.GG	-ve er-	2.D	bel-	4B	-ve er-	.	.	2g	.
.	.	.	.	4.d	-ran-	2B	bel-	.	.
8AA	.	.	.	.	.	.	.	.	.
2BB	.	.	.	.	.	.	.	[1gl	-ti.
.	.	.	.	8cL	.	.	.	.	.
.	.	4D	-ve er-	8B	.	4d	-ve er-	.	.
.	.	.	.	8AJ	.	.	.	.	.
2C	-ran-	2E	-ran-	2G	.	2c	-ran-	.	.
=39	=39	=39	=39	=39	=39	=39	=39	=39	=39
0GGl	-ti.	0Dl	-ti.	0Gl	-ti.	0Bl	-ti.	0g]	.
=40||	=40||	=40||	=40||	=40||	=40||	=40||	=40||	=40||	=40||
!!section: A guisa d'hom
!!!OMD: A guisa d'hom
1r	.	2G	A	2r	.	1d	A	2g	A
.	.	4B-X	gui-	2G	A	.	.	4g	gui-
.	.	4B-i	-sa	.	.	.	.	4g	-sa
1r	.	4A	d’hom	2.D	gui-	2.f	gui-	2a	d’hom
.	.	4A	che	.	.	.	.	.	.
.	.	4d	da	.	.	.	.	2a	che
.	.	4d	so-	4D	-sa	4f	-sa	.	.
=41	=41	=41	=41	=41	=41	=41	=41	=41	=41
1r	.	4.c	-ver-	4A	d’hom	2e	d’hom	2.cc	da
.	.	.	.	4A	che	.	.	.	.
.	.	8B	.	.	.	.	.	.	.
.	.	4A	.	2c	da	2e	che	.	.
.	.	4A	-chia	.	.	.	.	4cc	so-
2C	A	4.E	pe-	4c	so-	2e	da	4g	-ver-
.	.	.	.	2G	-ver-	.	.	4g	-chia
.	.	8F	.	.	.	.	.	.	.
4GG	gui-	4G	.	.	.	2d	so-	2b-X	pe-
4GG	-sa	[4D	-na,	4G	-chia	.	.	.	.
=42	=42	=42	=42	=42	=42	=42	=42	=42	=42
2D	d’hom	8DL]	.	2A	pe-	4f	-ver-	2a	-na,
.	.	8E	.	.	.	.	.	.	.
.	.	8F	.	.	.	4f	-chia	.	.
.	.	8GJ	.	.	.	.	.	.	.
4D	che	1A	.	4.D	-na,	2f	pe-	4r	.
2F	da	.	.	.	.	.	.	4a	che
.	.	.	.	8E	.	.	.	.	.
.	.	.	.	8FL	.	4.c	-na,	4a	da
.	.	.	.	8G	.	.	.	.	.
4F	so-	.	.	8A	.	.	.	4a	so-
.	.	.	.	8BJ	.	8d	.	.	.
4C	-ver-	2r	.	4c	.	2e	.	4g	-ver-
4C	-chia	.	.	4c	che	.	.	4g	-chia
=43	=43	=43	=43	=43	=43	=43	=43	=43	=43
1D	pe-	2r	.	4A	da	4r	.	1f	pe-
.	.	.	.	2d	so-	4A	A	.	.
.	.	4r	.	.	.	4A	gui-	.	.
.	.	4D	A	4.d	-ver-	4A	-sa	.	.
2GG	-na,	4D	gui-	.	.	1B	d’hom	2d	-na,
.	.	.	.	8cL	.	.	.	.	.
.	.	4D	-sa	8B	.	.	.	.	.
.	.	.	.	8AJ	.	.	.	.	.
2r	.	4E	d’hom	4G	.	.	.	4r	.
.	.	4E	che	4G	-chia	.	.	4g	A
=44	=44	=44	=44	=44	=44	=44	=44	=44	=44
2r	.	2G	da	2E	pe-	2B	che	4g	gui-
.	.	.	.	.	.	.	.	4g	-sa
2GG	che	4G	so-	2D	-na,	2d	da	4b-X	d’hom
.	.	4D	-ver-	.	.	.	.	4b-i	che
2D	da	4D	-chia	4r	.	4d	so-	2a	da
.	.	2F	pe-	2d	che	2A	-ver-	.	.
4D	so-	.	.	.	.	.	.	4a	so-
[4AA	-ver-	4E	-na	4c	da	4A	-chia	[4cc	-ver-
=45	=45	=45	=45	=45	=45	=45	=45	=45	=45
4AA]	.	4r	.	4A	so-	2c	pe-	8ccL]	.
.	.	.	.	.	.	.	.	8bJ	.
4AA	-chia	2E	Il	2e	-ver-	.	.	2a	.
2E	pe-	.	.	.	.	2B	-na	.	.
.	.	2e	cor	4B	-chia	.	.	4g#i	-chia
2AA	-na	.	.	2c#X	pe-	4r	.	2a	pe-
.	.	4e	trist’-	.	.	4A	Il	.	.
2r	.	2d	-an-	4d	-na	4f	cor	2a	-na
.	.	.	.	4D	Il	4f	trist’-	.	.
=46	=46	=46	=46	=46	=46	=46	=46	=46	=46
2AA	Il	4c	-ge	4A	cor	2e	-an-	2r	.
.	.	2c	fuor	4A	trist’-	.	.	.	.
4E	cor	.	.	2G	-an-	2e	-ge,	4r	.
4E	trist’	4B	di	.	.	.	.	4e	Il
2D	an-	4d	senn’	2F	-ge	4r	.	2.a	cor
.	.	4d	u-	.	.	2A	Il	.	.
4AA	-ge	4.c	-sci-	2E	fuor	.	.	.	.
[4C	fuor	.	.	.	.	[4e	cor	4g	trist’-
.	.	16BLL	.	.	.	.	.	.	.
.	.	16AJJ	.	.	.	.	.	.	.
=47	=47	=47	=47	=47	=47	=47	=47	=47	=47
4C]	.	4G	.	2E	di	4e]	.	2cc	-an-
4AA	di	4.A	-to,	.	.	4e	trist’-	.	.
4D	senn’	.	.	2.F	senn’	1d	-an-	2a	-ge,
.	.	8GL	.	.	.	.	.	.	.
4D	u-	8F	.	.	.	.	.	.	.
.	.	8EJ	.	.	.	.	.	.	.
2BB-X	-sci-	2D	.	.	.	.	.	2r	.
.	.	.	.	4G	u-	.	.	.	.
[2AA	-to,	4r	.	2A	-sci-	2c	-ge	[2e	Il
.	.	4E	Il	.	.	.	.	.	.
=48	=48	=48	=48	=48	=48	=48	=48	=48	=48
2AA]	.	4A	cor	2E	-to,	2.c	fuor	4e]	.
.	.	4A	trist’	.	.	.	.	2a	cor
2r	.	2F	an-	4.A	fuor	.	.	.	.
.	.	.	.	.	.	4d	di	4a	trist’-
.	.	.	.	8B	.	.	.	.	.
1r	.	4E	-ge	4c	.	4e	senn’	1g	-an-
.	.	2c	fuor	4C	di	4e	u-	.	.
.	.	.	.	4.G	senn’	[2d	-sci-	.	.
.	.	4B	del	.	.	.	.	.	.
.	.	.	.	16FLL	.	.	.	.	.
.	.	.	.	16EJJ	.	.	.	.	.
=49	=49	=49	=49	=49	=49	=49	=49	=49	=49
2D	fuor	4d	senn’	8DL	.	4d]	.	4f	-ge
.	.	.	.	8E	.	.	.	.	.
.	.	4d	u-	8F	.	4A	-to	2f	fuor
.	.	.	.	8GJ	.	.	.	.	.
2AA	di	2c	-sci-	4A	.	4r	.	.	.
.	.	.	.	4.E	u-	2c	fuor	4e	di
4E	senn’	2G	-to	.	.	.	.	4g	senn’
.	.	.	.	8F	.	.	.	.	.
4E	u-	.	.	4G	.	4B	di	4g	u-
2D	-sci-	2r	.	4.A	-sci-	4d	senn’	2f	-sci-
.	.	.	.	.	.	4d	u-	.	.
.	.	.	.	8B	.	.	.	.	.
=50	=50	=50	=50	=50	=50	=50	=50	=50	=50
4C	-to	2E	Se n’	2c	.	4G	-sci-	2e	-to
4AA	Se n’	.	.	.	.	4A	-to	.	.
4AA	va	4E	va	4c	-to	4r	.	2a	Se n’
4AA	pian-	4E	pian-	4c	Se n’	4e	Se n’	.	.
1D	-gen-	2F	-gen-	4A	va	2d	va	2.a	va
.	.	.	.	4A	pian-	.	.	.	.
.	.	2D	-do	2d	-gen-	2f	pian-	.	.
.	.	.	.	.	.	.	.	4b	pian-
=51	=51	=51	=51	=51	=51	=51	=51	=51	=51
1C	-do	4r	.	2G	-do	1e	-gen-	1cc	-gen-
.	.	4E	o-	.	.	.	.	.	.
.	.	4E	-ve	4r	.	.	.	.	.
.	.	4E	la	2G	o-	.	.	.	.
4r	.	8GL	fu-	.	.	1d	-do	1b	-do
.	.	8A	.	.	.	.	.	.	.
4GG	o-	8B	.	4G	-ve	.	.	.	.
.	.	8cJ	.	.	.	.	.	.	.
4GG	-ve	4d	.	4D	la	.	.	.	.
4GG	la	4B	-ria il	[4G	fu-	.	.	.	.
=52	=52	=52	=52	=52	=52	=52	=52	=52	=52
4.C	fu-	2e	me-	8GL]	.	4r	.	1r	.
.	.	.	.	8F	.	.	.	.	.
.	.	.	.	8E	.	2G	o-	.	.
8D	.	.	.	8DJ	.	.	.	.	.
8EL	.	2e	-na,	4C	.	.	.	.	.
8FJ	.	.	.	.	.	.	.	.	.
4G	.	.	.	4C	-ria il	4G	-ve	.	.
4E	-ria il	4r	.	4.c	me-	4G	la	2r	.
2F	me-	4A	o-	.	.	4.c	fu-	.	.
.	.	.	.	8B	.	.	.	.	.
.	.	[2c	-ve	4A	.	.	.	4r	.
.	.	.	.	.	.	8dL	.	.	.
[4C	-na,	.	.	4G	-na,	8e	.	4e	o-
.	.	.	.	.	.	8fJ	.	.	.
=53	=53	=53	=53	=53	=53	=53	=53	=53	=53
4C]	.	4c]	.	4r	.	4g	.	4e	-ve
4C	o-	4c	la	4E	o-	4g	-ria il	4e	la
2C	-ve	4c	fu-	4E	-ve	2e	me-	4.g	fu-
.	.	4c	-ria il	4E	la	.	.	.	.
.	.	.	.	.	.	.	.	8a	.
2GG	la	2B	me-	4.G	fu-	4d	-na,	8bL	.
.	.	.	.	.	.	.	.	8ccJ	.
.	.	.	.	.	.	2d	o-	2dd	.
.	.	.	.	8A	.	.	.	.	.
4.G	fu-	2B	-na	8BL	.	.	.	.	.
.	.	.	.	8cJ	.	.	.	.	.
.	.	.	.	4d	.	4B	-ve	[4g	-ria il
8F	.	.	.	.	.	.	.	.	.
=54	=54	=54	=54	=54	=54	=54	=54	=54	=54
8EL	.	4r	.	2G	-ria il	4B	la	4g]	.
8D	.	.	.	.	.	.	.	.	.
8C	.	4E	o-	.	.	2e	fu-	4.cc	me-
8BBJ	.	.	.	.	.	.	.	.	.
4.AA	.	4.A	-ve	4.c	me-	.	.	.	.
.	.	.	.	.	.	.	.	8b	.
.	.	.	.	.	.	4e	-ria il	4.a	.
16BBLL	.	8G	la	8B	.	.	.	.	.
16CJJ	.	.	.	.	.	.	.	.	.
4D	.	4F	fu-	8AL	.	1d	me-	.	.
.	.	.	.	8DJ	.	.	.	8g	.
4GG	-ria il	4B-i	-ria il	4.d	.	.	.	2g	.
2D	me-	2A	me-	.	.	.	.	.	.
.	.	.	.	8c	.	.	.	.	.
.	.	.	.	4A	.	.	.	4f#i	.
=55	=55	=55	=55	=55	=55	=55	=55	=55	=55
1GG	-na,	2G	-na,	4.B	-na,	2d	-na,	1g	-na,
.	.	.	.	8c	.	.	.	.	.
.	.	4r	.	2d	.	2.B	Vo	.	.
.	.	2G	Vo	.	.	.	.	.	.
1r	.	.	.	4r	.	.	.	1r	.
.	.	4F	pian-	4A	Vo	4c	pian-	.	.
.	.	4B-i	-gend’	4G	pian-	4d	-gend’	.	.
.	.	[4A	io	[4c	-gend’	[4e	io	.	.
=56	=56	=56	=56	=56	=56	=56	=56	=56	=56
2E	Vo	4A]	.	4c]	.	4e]	.	2r	.
.	.	4G	tra	2B	io	4e	tra	.	.
4D	pian-	4d	voi,	.	.	2f	voi,	4r	.
4F	-gend’	4d	e	4A	tra	.	.	2a	Vo
4.E	io	4c	se	2e	voi,	2r	.	.	.
.	.	4B	par-	.	.	.	.	2g	pian-
8D	.	.	.	.	.	.	.	.	.
8CL	.	4c	-ti-	4r	.	2e	Vo	.	.
8BBJ	.	.	.	.	.	.	.	.	.
4C	.	4G	-to	4E	Vo	.	.	[4cc	-gend’
=57	=57	=57	=57	=57	=57	=57	=57	=57	=57
2GG	tra	4G	non	2G	pian-	2d	pian-	4cc]	.
.	.	2d	can-	.	.	.	.	2b	io
1D	voi,	.	.	4F	-gend’	1f	-gend’	.	.
.	.	4d	-gia il	2F	io	.	.	4a	tra
.	.	2A	ciel,	.	.	.	.	4dd	voi,
.	.	.	.	4D	tra	.	.	2dd	e
2r	.	2r	.	4.A	voi,	2e	io	.	.
.	.	.	.	.	.	.	.	[4cc	se
.	.	.	.	16GLL	.	.	.	.	.
.	.	.	.	16FJJ	.	.	.	.	.
=58	=58	=58	=58	=58	=58	=58	=58	=58	=58
2G	e	1r	.	4E	.	4e	tra	4cc]	.
.	.	.	.	4G	e	4d	voi,	4b	par-
4F	se	.	.	4A	se	4r	.	1cc	-ti-
4E	par-	.	.	4G	par-	2g	e	.	.
2F	-ti-	1r	.	2A	-ti-	.	.	.	.
.	.	.	.	.	.	2f	se	.	.
2C	-to	.	.	4G	-to	.	.	4.cc	-to
.	.	.	.	4G	non	4e	par-	.	.
.	.	.	.	.	.	.	.	8b	non
=59	=59	=59	=59	=59	=59	=59	=59	=59	=59
2D	non	4r	.	4F	can-	2f	-ti-	4a	can-
.	.	2d	e	4D	-gia il	.	.	4a	-gia il
4BB	can-	.	.	2G	ciel,	4d	-to	2g	ciel,
4C	-gia il	2c	se	.	.	4e	non	.	.
4GG	ciel,	.	.	4r	.	4d	can-	2g	e
4GG	e	4B	par-	2G	e	4d	-gia il	.	.
4C	se	2c	-ti-	.	.	4G	ciel	4e	se
4AA	par-	.	.	[4F	se	4r	.	4a	par-
=60	=60	=60	=60	=60	=60	=60	=60	=60	=60
2C	-ti-	4.c	-to	4F]	.	4r	.	2g	-ti-
.	.	.	.	4E	par-	4G	con	.	.
.	.	8B	non	.	.	.	.	.	.
4D	-to	4A	can-	2F	-ti-	2d	vo-	4f	-to
4D	non	4A	-gia il	.	.	.	.	4d	non
4BB	can-	2G	ciel,	4D	-to	4d	-ce as-	2g	can-
4C	-gia il	.	.	4E	non	2c	-sai	.	.
2GG	ciel,	4r	.	4D	can-	.	.	2g	-gia il
.	.	[4G	con	4D	-gia il	4B	più	.	.
=61	=61	=61	=61	=61	=61	=61	=61	=61	=61
4r	.	4G]	.	2C	ciel,	8cL	pie-	2e	ciel,
.	.	.	.	.	.	8d	.	.	.
4G	con	2c	vo-	.	.	8e	.	.	.
.	.	.	.	.	.	8cJ	.	.	.
2G	vo-	.	.	2r	.	4.d	.	2r	.
.	.	4B-X	-ce as-	.	.	.	.	.	.
.	.	.	.	.	.	8e	.	.	.
2D	-ce as-	4A	-sai	4r	.	2f	.	2r	.
.	.	4d	più	2A	con	.	.	.	.
4.A	-sai	4.c	pie-	.	.	4e	-na,	4r	.
.	.	.	.	4c	vo-	[4A	con	4e	con
8G	.	8BnXi	.	.	.	.	.	.	.
=62	=62	=62	=62	=62	=62	=62	=62	=62	=62
8FL	.	2A	.	4c	-ce as-	4A]	.	2a	vo-
8EJ	.	.	.	.	.	.	.	.	.
2D	.	.	.	2d	-sai	4.f	vo-	.	.
.	.	2D	-na,	.	.	.	.	4a	-ce as-
.	.	.	.	.	.	8e	.	.	.
4GG	più	.	.	4B-X	più	2d	.	2g	-sai
2D	pie-	4r	.	2A	pie-	.	.	.	.
.	.	2D	con	.	.	4A	-ce as-	4f#i	più
4GG	-na,	.	.	2G	-na,	4B	-sai	8gL	pie-
.	.	.	.	.	.	.	.	8a	.
4GG	con	[4G	vo-	.	.	4d	più	8b	.
.	.	.	.	.	.	.	.	8gJ	.
=63	=63	=63	=63	=63	=63	=63	=63	=63	=63
4D	vo-	4G]	.	4r	.	2d	pie-	4.a	.
4D	-ce as-	4F	-ce as-	4D	con	.	.	.	.
.	.	.	.	.	.	.	.	8b	.
8AAL	-sai	2.E	-sai	4A	vo-	1e	-na	2cc	.
8BB	.	.	.	.	.	.	.	.	.
8C	.	.	.	4A	-ce as-	.	.	.	.
8DJ	.	.	.	.	.	.	.	.	.
8EL	.	.	.	2G	-sai	.	.	2b	-na
8FJ	.	.	.	.	.	.	.	.	.
4G	.	4E	più	.	.	.	.	.	.
4D	più	4A	pie-	4F#X	più	4r	.	4r	.
[4E	pie-	4G	-na	[4G	pie-	4e	Sa-	4b	Sa-
=64	=64	=64	=64	=64	=64	=64	=64	=64	=64
8EL]	.	2r	.	8GL]	.	4e	-rò	4b	-rò
8FJ	.	.	.	8A	.	.	.	.	.
4G	.	.	.	8B	.	4d	di	4b	di
.	.	.	.	8GJ	.	.	.	.	.
4F	-na	4r	.	4.A	.	4f	là	2cc	là
4A	Sa-	4F	Sa-	.	.	2c	tra	.	.
.	.	.	.	8B	.	.	.	.	.
4A	-rò	4F	-rò	2c	.	.	.	2a	tra
4AA	di	4E	di	.	.	2e	le	.	.
4E	là	2G	là	2B	-na	.	.	[2b	le
[4E	tra	.	.	.	.	[4g	mest’	.	.
=65	=65	=65	=65	=65	=65	=65	=65	=65	=65
4E]	.	4r	.	4E	Sa-	4g]	.	4b]	.
4AA	le	2A	tra	4E	-rò	2e	om-	2cc	mest’
4AA	mest’	.	.	4E	di	.	.	.	.
2D	om-	2A	le	2F	là	4d	-bre u-	2a	om-
.	.	.	.	.	.	2d	-di-	.	.
4GG	-bre u-	4B-X	mest’	4D	tra	.	.	2g	-bre u-
2C	-di-	4G	om-	[2E	le	4c	-to,	.	.
.	.	4G	-bre u-	.	.	4c	tra	[4cc	-di-
=66	=66	=66	=66	=66	=66	=66	=66	=66	=66
2AA	-to,	2A	-di-	4E]	.	4c	le	8ccL]	.
.	.	.	.	.	.	.	.	8b	.
.	.	.	.	2F	mest’	4c	mest’	8a	.
.	.	.	.	.	.	.	.	8gJ	.
2r	.	4A	-to,	.	.	4.f	om-	4.a	.
.	.	2A	Sa-	2D	om-	.	.	.	.
.	.	.	.	.	.	8e	.	8g	.
1r	.	.	.	.	.	4d	.	4f	.
.	.	2c	-rò	4C	-bre u-	4G	-bre u-	4.e	.
.	.	.	.	2F	-di-	2A	-di-	.	.
.	.	.	.	.	.	.	.	16dLL	.
.	.	.	.	.	.	.	.	16cJJ	.
.	.	8BL	.	.	.	.	.	4d	.
.	.	8AJ	.	.	.	.	.	.	.
=67	=67	=67	=67	=67	=67	=67	=67	=67	=67
4r	.	4G#X	.	2E	-to,	4B	-to,	4e	-do,
2AA	Sa-	4A	di	.	.	4e	Sa-	4cc	Sa-
.	.	4E	là	4r	.	2e	-rò	4cc	-rò
4AA	-rò	4A	tra	4c	Sa-	.	.	4cc	di
4AA	di	4A	le	4c	-rò	4e	di	4a	là
2D	là	4F	mest’	4A	di	2f	là	4a	tra
.	.	4B-i	om-	2d	là	.	.	4f	le
[4GG	tra	4B-i	-bre u-	.	.	[4d	tra	4b-i	mest’
=68	=68	=68	=68	=68	=68	=68	=68	=68	=68
4GG]	.	2G	-di-	4r	.	4d]	.	4b-i	om-
4C	le	.	.	4c	tra	2e	le	4g	-bre u-
4AA	mest’	2A	-to,	4c	le	.	.	8ccL	-di-
.	.	.	.	.	.	.	.	8b-i	.
2D	om-	.	.	4F	mest’-	4f	mest’	8a	.
.	.	.	.	.	.	.	.	8gJ	.
.	.	4r	.	4.A	-om-	4d	om-	4f	.
4AA	-bre u-	4A	Sa-	.	.	4c	-bre u-	4e	.
.	.	.	.	8G	.	.	.	.	.
2D	-di-	4A	-rò	4F	.	2f	-di-	2d	-to,
.	.	4A	di	4D	-bre u-	.	.	.	.
=69	=69	=69	=69	=69	=69	=69	=69	=69	=69
4C	-to,	2.c	là	2G	-di-	4.e	-to,	4r	.
4C	Sa-	.	.	.	.	.	.	4e	Sa-
.	.	.	.	.	.	8d	.	.	.
4AA	-rò	.	.	2A	-to,	2c	.	4e	-rò
4AA	di	4A	tra	.	.	.	.	4e	di
4E	là	4B	le	4r	.	1r	.	4g	là
4C	tra	2c	mest’	4G	tra	.	.	2e	tra
4C	le	.	.	4G	le	.	.	.	.
4D	mest’	4A	om-	4d	mest’-	.	.	4f#X	le
=70	=70	=70	=70	=70	=70	=70	=70	=70	=70
4E	om-	4G	-bre u-	4c	-om-	1r	.	4g	mest’
4F	-bre u-	2c	-di-	4A	-bre u-	.	.	2a	om-
2E	-di-	.	.	4.e	-di-	.	.	.	.
.	.	4B	-to,	.	.	.	.	4g	-bre u-
.	.	.	.	8d	.	.	.	.	.
2AA	-to,	4r	.	8cL	.	2e	Sa-	1cc	-di-
.	.	.	.	8BJ	.	.	.	.	.
.	.	4A	Sa-	4.c	.	.	.	.	.
4r	.	4A	-rò	.	.	4e	-rò	.	.
.	.	.	.	8BL	.	.	.	.	.
4A	Sa-	4A	di	8A	.	4e	di	.	.
.	.	.	.	8GJ	.	.	.	.	.
=71	=71	=71	=71	=71	=71	=71	=71	=71	=71
2A	-rò	4c	là	2F	.	2.f	là	2a	-to,
.	.	4c	tra	.	.	.	.	.	.
4A	di	4d	le	4D	-to,	.	.	2r	.
2B-X	là	4d	mest’	4G	Sa-	2d	tra	.	.
.	.	8GL	om-	4G	-rò	.	.	1r	.
.	.	8A	.	.	.	.	.	.	.
4G	tra	8B	.	4E	di	4e	le	.	.
.	.	8cJ	.	.	.	.	.	.	.
4A	le	4d	.	4D	là	4f	mest’	.	.
4B-i	mest’	4d	-bre u-	4G	tra	[4d	om-	.	.
=72	=72	=72	=72	=72	=72	=72	=72	=72	=72
4A	om-	8DL	-di-	2.F	le	4d]	.	2a	Sa-
.	.	8E	.	.	.	.	.	.	.
4A	-bre u-	8F	.	.	.	4c	-bre u-	.	.
.	.	8GJ	.	.	.	.	.	.	.
2D	-di-	4A	.	.	.	2f	-di-	4a	-rò
.	.	4A	-to,	4D	mest’	.	.	4a	di
4AA	-to,	4r	.	4A	om-	[1el	-to.	2.cc	là
4AA	Sa-	4E	Sa-	4A	-bre u-	.	.	.	.
4AA	-rò	4E	-rò	2c	-di-	.	.	.	.
4AA	di	4E	di	.	.	.	.	4a	tra
=73	=73	=73	=73	=73	=73	=73	=73	=73	=73
4E	là	2G	là	4B	-to,	0e_	.	4b	le
4C	tra	.	.	4E	tra	.	.	2cc	mest’
4AA	le	2A	tra	4E	le	.	.	.	.
4AA	mest’	.	.	4E	mest’	.	.	2a	om-
4.E	om-	2B	le	1E	om-	.	.	.	.
.	.	.	.	.	.	.	.	2g	-bre u-
8DL	.	.	.	.	.	.	.	.	.
8C	.	2c	mest’	.	.	.	.	.	.
8BBJ	.	.	.	.	.	.	.	.	.
[4AA	.	.	.	.	.	.	.	[4cc	-di-
=74	=74	=74	=74	=74	=74	=74	=74	=74	=74
4AA]	.	4A	om-	2E	-bre u-	0e_	.	4cc]	.
4E	-bre u-	4G	-bre u-	.	.	.	.	4.b	.
2AA	-di-	2c	-di-	2A	-di-	.	.	.	.
.	.	.	.	.	.	.	.	8a	.
.	.	.	.	.	.	.	.	4a	.
[1El	-to.	[1Bl	-to.	[1G#Xl	-to.	.	.	[1bl	-to.
=75	=75	=75	=75	=75	=75	=75	=75	=75	=75
0E]	.	0B]	.	0G#]	.	0e]	.	0b]	.
==	==	==	==	==	==	==	==	==	==
*-	*-	*-	*-	*-	*-	*-	*-	*-	*-
!!!system-decoration: s1,s2,s3,s4,s5
!!!RDF**kern: i = editorial accidental
!!!RDF**kern: l = terminal long
!!!ENC: Janosch Umbreit
!!!END: 2025/3/27
!!!EED: Benjamin Ory
!!!EEV: 2026/04/01
!!!YEC: Copyright 2026 Jessie Ann Owens and Scott Metcalfe, All Rights Reserved
!!!ONB: Translated from MusicXML on 2026/04/01
!!!header-left: Edited by Jessie Ann Owens and Scott Metcalfe (2026)\n
!!!header-right:
!!!header-center: